X: 73
T: Cooley's Reel
N: page 25
N: heptatonic
N: matches 187
S: Bernie Waugh
R: Reel
M: 4/4
L: 1/8
K: Edor
|:D|\
"Em"EBBA B2EB|B2AB dBAG|"D"(3FED AD BDAG|(3FED FA dAFD| "Em"EBBA B2EB|
B2AB defg| "D"afec dBAF|"Bm"DEFD "Em"E3:: g/f/| "Em"eB ~B2 efgf|eB ~B2 gedB|
"D" A2 FA DAFA|~D2FA "Bm"defg| "Em"eB ~B2 efgf|"C"eB ~B2 defg|\
"Am" afec dBAF|"Bm"DEFD "Em"E3:|


